X:21
T:Athole House
S:Petrie's Second Collection of Strathspey Reels and Country Dances &c.
Z:Steve Wyrick , 6/5/04
N:Petrie's Second Collection, page 7
% Gore's Index gives earliest publication as Daniel Dow's "20 minuets
% and 16 reels or C.D.s for the Vn., Hchd., or G.Fl.",1773
L:1/8
M:C
R:Reel
K:F
f|cFAF       cF (d/c/B/A/)|cFAF        (EGGf)|cFAF          cAfc|d/c/B/A/ cC DFF :|
c|f2 (a/g/f) fcAc         |Fc d/c/B/A/ (BGGe)|f2 (a/g/f/e/) fcAc|dfeg       (cffc)|
  fcaf       ecbg         |afcf        (eggb)|afcf          dBGB|AFcC        DFF |]
